X:1
T:Title
%%score { ( 1 3 ) | ( 2 4 ) }
L:1/8
M:3/4
K:Eb
V:1 treble nm="Grand Piano"
V:3 treble 
V:2 bass 
V:4 bass 
V:1
 z2 z2[Q:1/4=100] B2 | BB c2 B2 | GB E2 [Ge]2 | [Ge]c B2 G2 |[M:2/4] [DF]4 |[M:1/4] [DB]2 | %6
[M:3/4] BB c2 B2 | GB E2 [Ge]2 | [Ge]3 [EG] [DG][DF] |[M:2/4] [B,E]4 |[M:1/4] [EB]2 | %11
[M:3/4] [Fd][Fd] [Fd]2 [Fd]2 | [Ec][EB] [Ge]2 [GB]2 | [Fd][Fd] [Fd]2 [Fd]2 | %14
[M:2/4] [Ec][EB] [Ge]2 |[M:1/4] [_Gc]2 |[M:3/4] BA G2 B2 |[M:7/8] z z z z2 c2 | %18
[M:3/4] Bc [EG]2 [DF]2 |[M:2/4] [B,E]4 |] %20
V:2
 z2 z2 [E,G,E]2 | [E,G,E][E,G,E] [E,A,E]2 [E,G,E]2 | [E,B,E][G,B,E] [E,G,]2 [E,B,]2 | %3
 [E,B,][A,E] [G,B,E]2 [E,B,E]2 |[M:2/4] [B,,B,]4 |[M:1/4] [B,,A,]2 | %6
[M:3/4] [E,G,E][E,G,E] [E,A,E]2 [E,G,E]2 | [E,B,E][E,G,E] [E,G,]2 [E,B,]2 | %8
 [E,B,]3 [E,B,] [B,,B,][B,,A,] |[M:2/4] [E,G,]4 |[M:1/4] [E,G,]2 | %11
[M:3/4] [B,,A,][B,,A,] [B,,A,]2 [B,,A,]2 | [E,A,][E,G,] [E,B,]2 [E,B,]2 | %13
 [B,,A,][B,,A,] [B,,A,]2 [B,,A,]2 |[M:2/4] [E,A,][E,G,] [E,B,]2 |[M:1/4] [E,=A,]2 | %16
[M:3/4] [G,B,G][E,CE] [E,B,E]2 [G,B,E]2 |[M:7/8] [A,E][F,B,] [E,B,]3 [=A,E]2 | %18
[M:3/4] [G,B,E][A,E] [B,,B,]2 [B,,A,]2 |[M:2/4] [E,G,]4 |] %20
V:3
 x6 | x6 | x6 | x6 |[M:2/4] x4 |[M:1/4] x2 |[M:3/4] x6 | x6 | x6 |[M:2/4] x4 |[M:1/4] x2 | %11
[M:3/4] x6 | x6 | x6 |[M:2/4] x4 |[M:1/4] x2 |[M:3/4] x6 |[M:7/8] c[Ad] [Ge]3 z _G, |[M:3/4] x6 | %19
[M:2/4] x4 |] %20
V:4
 x6 | x6 | x6 | x6 |[M:2/4] x4 |[M:1/4] x2 |[M:3/4] x6 | x6 | x6 |[M:2/4] x4 |[M:1/4] x2 | %11
[M:3/4] x6 | x6 | x6 |[M:2/4] x4 |[M:1/4] x2 |[M:3/4] x6 |[M:7/8] z z z z2 F, z |[M:3/4] x6 | %19
[M:2/4] x4 |] %20

